X:728
T:MacAllum's
R:Jig
O:Ireland
S:Music from Ireland Vol. 3
B:Music from Ireland Vol. 3
Z:Transcription, chords:Mike Long
M:6/8
L:1/8
K:C
"Dm"ADD DEG|"Dm"Add "C"c2e|"Am"dcA AGE|"Am"c2A "G"GED|\
"Dm"ADD D/E/FG|"Dm"Add "C"c2e|"Am"dcA AGE|"G"GED D3:|
"Dm"Add dcd|"C"cde e2d|"Am"cAA AGE|"Am"c2e "G"dcA|\
"Dm"Add dcd|"C"cde e2d|"Am"cAA AGE|"G"GED D2G||
"Dm"Add dcd|"C"cde e2d|"Am"cAA AGE|"Am"c2e "G"dcA|\
"Dm"Add dcd|"C"cde a2g|"Am"edc AGE|"G"GED D2|]
